icons/1_Primary/FRITZ!.svg

<svg width="1024" height="1024" fill="none" xmlns="http://www.w3.org/2000/svg"><g clip-path="url(#a)"><path d="M512 1024c282.77 0 512-229.23 512-512S794.77 0 512 0 0 229.23 0 512s229.23 512 512 512Z" fill="#FF837D"/><path d="M506 417.5v155.2h-45.8l-.3-127 19.8-4.7-5.8-23.4H506v-.1Zm-185.2 33.7c19-.8 46.6-2.1 64 0 22.1 2.6 51.1 8.4 53.5 39.5 1.1 14.8-4 27.4-24.8 44l40.6 47.4c-10.8 11.1-23.2 21.9-36.1 32.4l-48.2-80.1c10.5-8.2 23.2-20 23.2-34 0-13.4-12.6-19.8-17.1-19.8h-9.7v130.7h-45.3V451.2h-.1Zm238.7 159.6V488.1l-44.3 1.1v-40.6h134.9v40.6l-44-1.1v122.8h-46.6v-.1Zm95.1-160.9v-40.3c15.5 0 59.8-.8 120.9 2.6L711 532.1c14 .3 33.7.8 60.6-1.1v40.3H645.7l63.7-122.8c-14.8.3-31.9.3-54.8 1.4Zm-351.2-14.8v14.5h-47.9V486l44-.3v37.4H256v63h-47.2V412.7l94.6-1.8v24.2Zm491.1 80.1 30.6 1.1 12.1-78.8-37.9-3.2-4.8 80.9Zm34.5 30.3-23.9 19.4-19.4-23.9 23.9-19.4 19.4 23.9Z" fill="#fff"/></g><defs><clipPath id="a"><path fill="#fff" d="M0 0h1024v1024H0z"/></clipPath></defs></svg>

<svg width="1024" height="1024" viewBox="0 0 1024 1024" fill="none" xmlns="http://www.w3.org/2000/svg">
<g clip-path="url(#clip0_2_2238)">
<path d="M512 1024C794.77 1024 1024 794.77 1024 512C1024 229.23 794.77 0 512 0C229.23 0 0 229.23 0 512C0 794.77 229.23 1024 512 1024Z" fill="#FF837D"/>
<path d="M506 417.5V572.7H460.2L459.9 445.7L479.7 441L473.9 417.6H506V417.5ZM320.8 451.2C339.8 450.4 367.4 449.1 384.8 451.2C406.9 453.8 435.9 459.6 438.3 490.7C439.4 505.5 434.3 518.1 413.5 534.7L454.1 582.1C443.3 593.2 430.9 604 418 614.5L369.8 534.4C380.3 526.2 393 514.4 393 500.4C393 487 380.4 480.6 375.9 480.6H366.2V611.3H320.9V451.2H320.8ZM559.5 610.8V488.1L515.2 489.2V448.6H650.1V489.2L606.1 488.1V610.9H559.5V610.8ZM654.6 449.9V409.6C670.1 409.6 714.4 408.8 775.5 412.2L711 532.1C725 532.4 744.7 532.9 771.6 531V571.3H645.7L709.4 448.5C694.6 448.8 677.5 448.8 654.6 449.9ZM303.4 435.1V449.6H255.5V486L299.5 485.7V523.1H256V586.1H208.8V412.7L303.4 410.9V435.1ZM794.5 515.2L825.1 516.3L837.2 437.5L799.3 434.3L794.5 515.2ZM829 545.5L805.1 564.9L785.7 541L809.6 521.6L829 545.5Z" fill="white"/>
</g>
<defs>
<clipPath id="clip0_2_2238">
<rect width="1024" height="1024" fill="white"/>
</clipPath>
</defs>
</svg>
